svg/aws-ec2-p3dn.svg

<?xml version="1.0" encoding="UTF-8"?>
<svg xmlns="http://www.w3.org/2000/svg" xmlns:xlink="http://www.w3.org/1999/xlink" width="32" height="32" viewBox="0 0 32 32">
<path fill-rule="evenodd" fill="rgb(83.137255%, 35.686275%, 2.745098%)" fill-opacity="1" d="M 6 26 L 26 26 L 26 6 L 6 6 Z M 30.667969 8.667969 L 30.667969 7.332031 L 27.332031 7.332031 L 27.332031 5.332031 C 27.332031 4.964844 27.035156 4.667969 26.667969 4.667969 L 24.667969 4.667969 L 24.667969 1.332031 L 23.332031 1.332031 L 23.332031 4.667969 L 20.667969 4.667969 L 20.667969 1.332031 L 19.332031 1.332031 L 19.332031 4.667969 L 16.667969 4.667969 L 16.667969 1.332031 L 15.332031 1.332031 L 15.332031 4.667969 L 12.667969 4.667969 L 12.667969 1.332031 L 11.332031 1.332031 L 11.332031 4.667969 L 8.667969 4.667969 L 8.667969 1.332031 L 7.332031 1.332031 L 7.332031 4.667969 L 5.332031 4.667969 C 4.964844 4.667969 4.667969 4.964844 4.667969 5.332031 L 4.667969 7.332031 L 1.332031 7.332031 L 1.332031 8.667969 L 4.667969 8.667969 L 4.667969 11.332031 L 1.332031 11.332031 L 1.332031 12.667969 L 4.667969 12.667969 L 4.667969 15.332031 L 1.332031 15.332031 L 1.332031 16.667969 L 4.667969 16.667969 L 4.667969 19.332031 L 1.332031 19.332031 L 1.332031 20.667969 L 4.667969 20.667969 L 4.667969 23.332031 L 1.332031 23.332031 L 1.332031 24.667969 L 4.667969 24.667969 L 4.667969 26.667969 C 4.667969 27.035156 4.964844 27.332031 5.332031 27.332031 L 7.332031 27.332031 L 7.332031 30.667969 L 8.667969 30.667969 L 8.667969 27.332031 L 11.332031 27.332031 L 11.332031 30.667969 L 12.667969 30.667969 L 12.667969 27.332031 L 15.332031 27.332031 L 15.332031 30.667969 L 16.667969 30.667969 L 16.667969 27.332031 L 19.332031 27.332031 L 19.332031 30.667969 L 20.667969 30.667969 L 20.667969 27.332031 L 23.332031 27.332031 L 23.332031 30.667969 L 24.667969 30.667969 L 24.667969 27.332031 L 26.667969 27.332031 C 27.035156 27.332031 27.332031 27.035156 27.332031 26.667969 L 27.332031 24.667969 L 30.667969 24.667969 L 30.667969 23.332031 L 27.332031 23.332031 L 27.332031 20.667969 L 30.667969 20.667969 L 30.667969 19.332031 L 27.332031 19.332031 L 27.332031 16.667969 L 30.667969 16.667969 L 30.667969 15.332031 L 27.332031 15.332031 L 27.332031 12.667969 L 30.667969 12.667969 L 30.667969 11.332031 L 27.332031 11.332031 L 27.332031 8.667969 Z M 21.507812 18.484375 L 20.640625 18.484375 L 20.640625 14.753906 L 21.359375 14.753906 L 21.449219 15.164062 C 21.90625 14.816406 22.386719 14.644531 22.886719 14.644531 C 23.242188 14.644531 23.515625 14.738281 23.699219 14.925781 C 23.886719 15.113281 23.980469 15.386719 23.980469 15.742188 L 23.980469 18.484375 L 23.113281 18.484375 L 23.113281 16.015625 C 23.113281 15.773438 23.066406 15.601562 22.964844 15.488281 C 22.867188 15.378906 22.710938 15.324219 22.496094 15.324219 C 22.175781 15.324219 21.84375 15.433594 21.507812 15.648438 Z M 17.316406 15.636719 C 17.46875 15.429688 17.710938 15.324219 18.039062 15.324219 C 18.339844 15.324219 18.617188 15.414062 18.867188 15.589844 L 18.867188 17.605469 C 18.621094 17.78125 18.324219 17.878906 18.023438 17.882812 C 17.398438 17.882812 17.085938 17.453125 17.085938 16.59375 C 17.085938 16.164062 17.160156 15.84375 17.316406 15.636719 M 17.753906 18.566406 C 18.1875 18.566406 18.570312 18.421875 18.902344 18.125 L 18.992188 18.484375 L 19.734375 18.484375 L 19.734375 13.058594 L 18.867188 13.058594 L 18.867188 15.023438 C 18.5625 14.777344 18.1875 14.644531 17.796875 14.644531 C 17.46875 14.644531 17.183594 14.726562 16.945312 14.898438 C 16.699219 15.074219 16.507812 15.316406 16.394531 15.597656 C 16.261719 15.925781 16.199219 16.277344 16.207031 16.628906 C 16.207031 17.222656 16.347656 17.691406 16.625 18.042969 C 16.90625 18.390625 17.285156 18.566406 17.753906 18.566406 M 13.550781 18.597656 C 13.074219 18.59375 12.605469 18.492188 12.171875 18.300781 L 12.171875 17.613281 C 12.707031 17.792969 13.15625 17.882812 13.519531 17.882812 C 13.867188 17.882812 14.132812 17.808594 14.320312 17.652344 C 14.503906 17.5 14.597656 17.28125 14.597656 16.996094 C 14.597656 16.460938 14.261719 16.191406 13.582031 16.191406 C 13.363281 16.191406 13.128906 16.203125 12.875 16.234375 L 12.875 15.671875 L 14.320312 14.101562 L 12.246094 14.101562 L 12.246094 13.402344 L 15.273438 13.402344 L 15.273438 14.070312 L 13.75 15.566406 C 13.816406 15.558594 13.882812 15.558594 13.953125 15.558594 C 14.238281 15.558594 14.496094 15.621094 14.726562 15.738281 C 14.957031 15.859375 15.140625 16.027344 15.28125 16.25 C 15.417969 16.46875 15.484375 16.71875 15.484375 17.003906 C 15.484375 17.3125 15.40625 17.585938 15.25 17.824219 C 15.09375 18.0625 14.871094 18.253906 14.578125 18.390625 C 14.253906 18.535156 13.90625 18.605469 13.550781 18.597656 M 8.914062 14.09375 L 9.8125 14.09375 C 10.089844 14.09375 10.296875 14.167969 10.4375 14.320312 C 10.578125 14.472656 10.648438 14.695312 10.648438 14.988281 C 10.648438 15.28125 10.578125 15.503906 10.4375 15.65625 C 10.296875 15.808594 10.089844 15.882812 9.8125 15.882812 L 8.914062 15.882812 Z M 8.914062 16.570312 L 9.917969 16.570312 C 10.425781 16.570312 10.824219 16.429688 11.117188 16.148438 C 11.410156 15.863281 11.554688 15.476562 11.554688 14.988281 C 11.554688 14.5 11.40625 14.113281 11.113281 13.828125 C 10.816406 13.546875 10.414062 13.402344 9.90625 13.402344 L 8.019531 13.402344 L 8.019531 18.484375 L 8.914062 18.484375 Z M 8.914062 16.570312 "/>
</svg>

<svg role="img" viewBox="0 0 32 32" xmlns="http://www.w3.org/2000/svg"><path d="M6 26h20V6H6ZM30.668 8.668V7.332h-3.336v-2a.664.664 0 0 0-.664-.664h-2V1.332h-1.336v3.336h-2.664V1.332h-1.336v3.336h-2.664V1.332h-1.336v3.336h-2.664V1.332h-1.336v3.336H8.668V1.332H7.332v3.336h-2a.664.664 0 0 0-.664.664v2H1.332v1.336h3.336v2.664H1.332v1.336h3.336v2.664H1.332v1.336h3.336v2.664H1.332v1.336h3.336v2.664H1.332v1.336h3.336v2c0 .367.297.664.664.664h2v3.336h1.336v-3.336h2.664v3.336h1.336v-3.336h2.664v3.336h1.336v-3.336h2.664v3.336h1.336v-3.336h2.664v3.336h1.336v-3.336h2a.664.664 0 0 0 .664-.664v-2h3.336v-1.336h-3.336v-2.664h3.336v-1.336h-3.336v-2.664h3.336v-1.336h-3.336v-2.664h3.336v-1.336h-3.336V8.668Zm-9.16 9.816h-.867v-3.73h.718l.09.41q.687-.521 1.438-.52c.355 0 .629.094.812.282q.281.281.281.816v2.742h-.867v-2.468c0-.243-.047-.414-.148-.528q-.147-.164-.469-.164-.482.002-.988.324Zm-4.192-2.847q.23-.312.723-.313.451.001.828.266v2.015a1.47 1.47 0 0 1-.844.278q-.937 0-.937-1.29-.002-.645.23-.956m.438 2.93q.65.002 1.148-.442l.09.36h.742v-5.426h-.867v1.964a1.7 1.7 0 0 0-1.07-.378q-.493-.002-.852.253a1.6 1.6 0 0 0-.55.7 2.6 2.6 0 0 0-.188 1.03c0 .595.14 1.063.418 1.415.281.348.66.523 1.129.523m-4.203.03q-.704-.001-1.38-.296v-.688q.803.27 1.349.27.52.002.8-.23.277-.23.278-.657.002-.804-1.016-.805-.327.001-.707.043v-.562l1.445-1.57h-2.074v-.7h3.027v.668l-1.523 1.496q.099-.007.203-.007.428.002.774.18.344.181.554.511.204.33.203.754 0 .462-.234.82-.233.362-.672.567a2.4 2.4 0 0 1-1.027.207m-4.637-4.503h.899q.415-.001.624.226.211.229.211.668t-.21.668-.626.227h-.898Zm0 2.476h1.004q.76 0 1.2-.422.438-.427.437-1.16t-.442-1.16c-.297-.281-.699-.426-1.207-.426H8.02v5.082h.894Zm0 0" fill="rgb(83.137256%, 35.686275%, 2.745098%)" fill-rule="evenodd"/></svg>
